assets/img/logo.svg

<svg width="150" height="150" viewBox="0 0 150 150" fill="none" xmlns="http://www.w3.org/2000/svg">
<path d="M75 52.72C77.63 41.85 78.5 16.22 68.38 7.58997" stroke="#2A2A2A" stroke-width="4" stroke-linecap="round" stroke-linejoin="round"/>
<path d="M78.52 31.14C73.4 15 105.94 -1.81002 124.3 10.6C111.43 21.14 105.63 45.2 78.52 31.14Z" fill="#3CB371" stroke="#2A2A2A" stroke-width="4" stroke-miterlimit="10"/>
<path d="M75 51.94C82.59 51.94 85.76 41.35 100.31 41.35C114.86 41.35 131 52.29 131 76.65C131 101.01 109.8 143.71 99.2 143.71C88.6 143.71 81.91 138.06 75 138.06C68.09 138.06 61.4 143.71 50.8 143.71C40.2 143.71 19 101 19 76.65C19 52.3 35.14 41.35 49.69 41.35C64.24 41.35 67.41 51.94 75 51.94Z" fill="#FF6347"/>
<path d="M75 51.94C82.59 51.94 85.76 41.35 100.31 41.35C114.86 41.35 131 52.29 131 76.65C131 101.01 109.8 143.71 99.2 143.71C88.6 143.71 81.91 138.06 75 138.06C68.09 138.06 61.4 143.71 50.8 143.71C40.2 143.71 19 101 19 76.65C19 52.3 35.14 41.35 49.69 41.35C64.24 41.35 67.41 51.94 75 51.94Z" stroke="#2A2A2A" stroke-width="4" stroke-linecap="round" stroke-linejoin="round"/>
<path d="M36.67 57C45.78 47.38 54.94 50.18 57.42 54.87C59.9 59.56 53.05 66.71 48.21 71.27C43.37 75.83 37.62 83.59 32.58 83.27C27.54 82.95 25.81 68.48 36.67 57Z" fill="white"/>
<path d="M38.1229 58.3744C46.6621 49.3578 54.0442 52.7644 55.6519 55.8049C55.972 56.4102 56.0557 57.1899 55.7738 58.2604C55.4855 59.3547 54.8455 60.6166 53.9076 61.9919C52.0317 64.7427 49.2479 67.5443 46.8385 69.8143C45.6631 70.9217 44.4431 72.2037 43.2411 73.4668C43.1561 73.5562 43.0711 73.6455 42.9862 73.7346C41.6835 75.1028 40.3952 76.4457 39.1125 77.6312C37.8243 78.8218 36.6103 79.7884 35.478 80.4333C34.3389 81.0821 33.4313 81.32 32.7067 81.274C32.5128 81.2617 31.9514 81.0907 31.3938 79.8337C30.8567 78.6229 30.5243 76.7633 30.6591 74.4356C30.9268 69.8143 33.0164 63.7724 38.1229 58.3744Z" fill="white" stroke="#2A2A2A" stroke-width="4"/>
</svg>

<?xml version="1.0" ?><svg id="ART" viewBox="0 0 150 150" xmlns="http://www.w3.org/2000/svg"><defs><style>.cls-1{fill:none;stroke-linecap:round;stroke-linejoin:round;}.cls-1,.cls-2{stroke:#000;stroke-width:4px;}.cls-2{fill:#49af20;stroke-miterlimit:10;}.cls-3{fill:#d83419;}.cls-4{fill:#fff;}</style></defs><title/><path class="cls-1" d="M75,52.72c2.63-10.87,3.5-36.5-6.62-45.13"/><path class="cls-2" d="M78.52,31.14C73.4,15,105.94-1.81,124.3,10.6,111.43,21.14,105.63,45.2,78.52,31.14Z"/><path class="cls-3" d="M75,51.94c7.59,0,10.76-10.59,25.31-10.59S131,52.29,131,76.65s-21.2,67.06-31.8,67.06-17.29-5.65-24.2-5.65-13.6,5.65-24.2,5.65S19,101,19,76.65,35.14,41.35,49.69,41.35,67.41,51.94,75,51.94Z" data-name="&lt;Clipping Path&gt;" id="_Clipping_Path_"/><path class="cls-1" d="M75,51.94c7.59,0,10.76-10.59,25.31-10.59S131,52.29,131,76.65s-21.2,67.06-31.8,67.06-17.29-5.65-24.2-5.65-13.6,5.65-24.2,5.65S19,101,19,76.65,35.14,41.35,49.69,41.35,67.41,51.94,75,51.94Z" data-name="&lt;Clipping Path&gt;" id="_Clipping_Path_2"/><path class="cls-4" d="M36.67,57c9.11-9.62,18.27-6.82,20.75-2.13s-4.37,11.84-9.21,16.4-10.59,12.32-15.63,12S25.81,68.48,36.67,57Z"/><path class="cls-4" d="M36.67,57c9.11-9.62,18.27-6.82,20.75-2.13s-4.37,11.84-9.21,16.4-10.59,12.32-15.63,12S25.81,68.48,36.67,57Z"/></svg>
